images_sukapura_svg/cmd/sc_iconsetformatdialog.svg

<svg viewBox="0 0 16 16" xmlns="http://www.w3.org/2000/svg"><path d="m1 1h14v14h-14z" fill="#fff" fill-opacity=".976744"/><path d="m0 0v16h16v-16h-4-1-6-1zm1 1h2 3 4 3 2v4h-2-3-2-1-1-3-1-1v-1-1zm0 5h2 3 1 3 3 2v4h-4-.5-1.5-2-1-5zm0 5h5 1 2 1.5 4.5v4h-14z" fill="#98989d"/><path d="m4 0a1.0001 1.0001 0 0 0 -1 1v1h-1a1.0001 1.0001 0 0 0 -1 1v1a1.0001 1.0001 0 0 0 1 1h1v1a1.0001 1.0001 0 0 0 1 1h1a1.0001 1.0001 0 0 0 1-1v-1h1a1.0001 1.0001 0 0 0 1-1v-1a1.0001 1.0001 0 0 0 -1-1h-1v-1a1.0001 1.0001 0 0 0 -1-1zm4 5a1.0001 1.0001 0 0 0 -.9941406.9003906 1.0001 1.0001 0 0 0 -.0058594.0996094v1h-1a1.0001 1.0001 0 0 0 -1 1v1a1.0001 1.0001 0 0 0 1 1h1v1a1.0001 1.0001 0 0 0 1 1h1c-.5522619.000055-.9999448.447738-1 1v1c.0000552.552262.4477381.999945 1 1h5c.552262-.000055.999945-.447738 1-1v-1c-.000055-.552262-.447738-.999945-1-1 1.443218-.492888-4.6848752-.022153-4.8964844-.005859a1.0001 1.0001 0 0 0 .8964844-.994141v-1h1a1.0001 1.0001 0 0 0 1-1v-1a1.0001 1.0001 0 0 0 -1-1h-1v-1a1.0001 1.0001 0 0 0 -1-1z" fill="#fff" fill-opacity=".784314"/><path d="m4 1v2h-2v1h2v2h1v-2h2v-1h-2v-2z" fill="#2a9240"/><path d="m8 6v2h-2v1h2v2h1v-2h2v-1h-2v-2z" fill="#2a9240"/><path d="m9 13h5v1h-5z" fill="#d70015"/></svg>

<?xml version="1.0" encoding="UTF-8" standalone="no"?>
<svg
   xmlns:dc="http://purl.org/dc/elements/1.1/"
   xmlns:cc="http://creativecommons.org/ns#"
   xmlns:rdf="http://www.w3.org/1999/02/22-rdf-syntax-ns#"
   xmlns:svg="http://www.w3.org/2000/svg"
   xmlns="http://www.w3.org/2000/svg"
   xmlns:sodipodi="http://sodipodi.sourceforge.net/DTD/sodipodi-0.dtd"
   xmlns:inkscape="http://www.inkscape.org/namespaces/inkscape"
   viewBox="0 0 16 16"
   version="1.1"
   id="svg12"
   sodipodi:docname="sc_iconsetformatdialog.svg"
   inkscape:version="0.92.4 (unknown)">
  <metadata
     id="metadata18">
    <rdf:RDF>
      <cc:Work
         rdf:about="">
        <dc:format>image/svg+xml</dc:format>
        <dc:type
           rdf:resource="http://purl.org/dc/dcmitype/StillImage" />
        <dc:title></dc:title>
      </cc:Work>
    </rdf:RDF>
  </metadata>
  <defs
     id="defs16" />
  <sodipodi:namedview
     pagecolor="#ffffff"
     bordercolor="#666666"
     borderopacity="1"
     objecttolerance="10"
     gridtolerance="10"
     guidetolerance="10"
     inkscape:pageopacity="0"
     inkscape:pageshadow="2"
     inkscape:window-width="1360"
     inkscape:window-height="714"
     id="namedview14"
     showgrid="true"
     inkscape:pagecheckerboard="true"
     inkscape:zoom="14.75"
     inkscape:cx="5.825042"
     inkscape:cy="5.4289968"
     inkscape:window-x="0"
     inkscape:window-y="28"
     inkscape:window-maximized="1"
     inkscape:current-layer="svg12">
    <inkscape:grid
       type="xygrid"
       id="grid828" />
  </sodipodi:namedview>
  <rect
     style="opacity:1;fill:#ffffff;fill-opacity:0.97674417;stroke:none;stroke-width:1;stroke-linecap:round;stroke-linejoin:round;stroke-miterlimit:4;stroke-dasharray:none;stroke-opacity:1"
     id="rect838"
     width="14"
     height="14"
     x="1"
     y="1" />
  <path
     style="fill:#98989d;fill-opacity:1;stroke:none"
     d="M 0 0 L 0 16 L 16 16 L 16 0 L 12 0 L 11 0 L 5 0 L 4 0 L 0 0 z M 1 1 L 3 1 L 6 1 L 10 1 L 13 1 L 15 1 L 15 5 L 13 5 L 10 5 L 8 5 L 7 5 L 6 5 L 3 5 L 2 5 L 1 5 L 1 4 L 1 3 L 1 1 z M 1 6 L 3 6 L 6 6 L 7 6 L 10 6 L 13 6 L 15 6 L 15 10 L 11 10 L 10.5 10 L 9 10 L 7 10 L 6 10 L 1 10 L 1 6 z M 1 11 L 6 11 L 7 11 L 9 11 L 10.5 11 L 15 11 L 15 15 L 1 15 L 1 11 z "
     id="path4" />
  <path
     style="opacity:1;fill:#ffffff;fill-opacity:0.78431374;stroke:none;stroke-width:1;stroke-linecap:round;stroke-linejoin:round;stroke-miterlimit:4;stroke-dasharray:none;stroke-opacity:1"
     d="M 4 0 A 1.0001 1.0001 0 0 0 3 1 L 3 2 L 2 2 A 1.0001 1.0001 0 0 0 1 3 L 1 4 A 1.0001 1.0001 0 0 0 2 5 L 3 5 L 3 6 A 1.0001 1.0001 0 0 0 4 7 L 5 7 A 1.0001 1.0001 0 0 0 6 6 L 6 5 L 7 5 A 1.0001 1.0001 0 0 0 8 4 L 8 3 A 1.0001 1.0001 0 0 0 7 2 L 6 2 L 6 1 A 1.0001 1.0001 0 0 0 5 0 L 4 0 z M 8 5 A 1.0001 1.0001 0 0 0 7.0058594 5.9003906 A 1.0001 1.0001 0 0 0 7 6 L 7 7 L 6 7 A 1.0001 1.0001 0 0 0 5 8 L 5 9 A 1.0001 1.0001 0 0 0 6 10 L 7 10 L 7 11 A 1.0001 1.0001 0 0 0 8 12 L 9 12 C 8.4477381 12.000055 8.0000552 12.447738 8 13 L 8 14 C 8.0000552 14.552262 8.4477381 14.999945 9 15 L 14 15 C 14.552262 14.999945 14.999945 14.552262 15 14 L 15 13 C 14.999945 12.447738 14.552262 12.000055 14 12 C 15.443218 11.507112 9.3151248 11.977847 9.1035156 11.994141 A 1.0001 1.0001 0 0 0 10 11 L 10 10 L 11 10 A 1.0001 1.0001 0 0 0 12 9 L 12 8 A 1.0001 1.0001 0 0 0 11 7 L 10 7 L 10 6 A 1.0001 1.0001 0 0 0 9 5 L 8 5 z "
     id="rect835" />
  <path
     d="m4 1v2h-2v1h2v2h1v-2h2v-1h-2v-2z"
     fill="#2a9240"
     id="path6" />
  <path
     d="m8 6v2h-2v1h2v2h1v-2h2v-1h-2v-2z"
     fill="#2a9240"
     id="path8" />
  <path
     d="m9 13h5v1h-5z"
     fill="#d70015"
     id="path10" />
</svg>
